files/1/128x128/places/user-desktop.svg

<?xml version="1.0" encoding="UTF-8" standalone="no"?>
<svg
   xmlns:dc="http://purl.org/dc/elements/1.1/"
   xmlns:cc="http://creativecommons.org/ns#"
   xmlns:rdf="http://www.w3.org/1999/02/22-rdf-syntax-ns#"
   xmlns:svg="http://www.w3.org/2000/svg"
   xmlns="http://www.w3.org/2000/svg"
   xmlns:sodipodi="http://sodipodi.sourceforge.net/DTD/sodipodi-0.dtd"
   xmlns:inkscape="http://www.inkscape.org/namespaces/inkscape"
   width="128"
   height="128"
   viewBox="0 0 128 128"
   id="svg2"
   version="1.1"
   inkscape:version="0.48.5 r10040"
   sodipodi:docname="user-desktop.svg">
  <metadata
     id="metadata20">
    <rdf:RDF>
      <cc:Work
         rdf:about="">
        <dc:format>image/svg+xml</dc:format>
        <dc:type
           rdf:resource="http://purl.org/dc/dcmitype/StillImage" />
      </cc:Work>
    </rdf:RDF>
  </metadata>
  <defs
     id="defs18" />
  <sodipodi:namedview
     pagecolor="#ffffff"
     bordercolor="#666666"
     borderopacity="1"
     objecttolerance="10"
     gridtolerance="10"
     guidetolerance="10"
     inkscape:pageopacity="0"
     inkscape:pageshadow="2"
     inkscape:window-width="1280"
     inkscape:window-height="969"
     id="namedview16"
     showgrid="false"
     inkscape:zoom="1.84375"
     inkscape:cx="-25.491525"
     inkscape:cy="62.915254"
     inkscape:window-x="0"
     inkscape:window-y="0"
     inkscape:window-maximized="1"
     inkscape:current-layer="svg2" />
  <path
     style="fill:#e9b080;fill-opacity:1;stroke:none"
     d="m 18,15.000004 c -2.927834,0 -6,3 -6,6.000001 l 0,2 -6,0 c -2.940198,0 -6,2.99066 -6,6 L 0,107 c 0,4 2,6 6,6 l 116,0 c 3.13523,0 6,-2.71669 6,-6 l 0,-67.999995 c 0,-3.009856 -2.91008,-6 -6,-6 l -6,0 0,-12 c 0,-2.922313 -2.90644,-6.000001 -6,-6.000001 z"
     id="path6-6"
     inkscape:connector-curvature="0"
     sodipodi:nodetypes="ssccssssscccsss" />
  <path
     inkscape:connector-curvature="0"
     id="path12"
     d="m 42.671875,56 0,5.328125 2.65625,0 0,-4 c 0,-1.34375 1.34375,-1.34375 1.34375,-1.34375 l 4,0.01563 0,-2.671875 -5.34375,0 c 0,0 -2.65625,0 -2.65625,2.671875 z m 34.65625,-2.671875 0,2.671875 4,0 c 0,0 1.34375,-0.01563 1.34375,1.328125 l 0,4 2.65625,0 0,-5.328125 c 0,-2.671875 -2.65625,-2.671875 -2.65625,-2.671875 z m -34.65625,29.34375 0,5.328125 c 0,2.671875 2.65625,2.671875 2.65625,2.671875 l 5.34375,0 0,-2.671875 -4,0.01563 C 45.328125,88 45.328125,86.6875 45.328125,86.6875 l 0,-4.015625 z m 40,0 0,4 c 0,1.3125 -1.34375,1.328125 -1.34375,1.328125 l -4,0 0,2.671875 5.34375,0 c 0,0 2.65625,0 2.65625,-2.671875 l 0,-5.328125 z"
     style="fill:#000000;fill-rule:evenodd;fill-opacity:0.32156864" />
  <path
     style="fill:#000000;fill-opacity:0.32156864"
     inkscape:connector-curvature="0"
     id="path14"
     d="m 50.671875,63.984375 0,10.671875 c 0,2.65625 2.65625,2.65625 2.65625,2.65625 l 8,0 C 64,77.3125 64,74.65625 64,74.65625 l 0,-8 -5.328125,-5.34375 -5.34375,0 c 0,0 -2.65625,0 -2.65625,2.671875 z m 2.65625,0 5.34375,0 0,2.671875 2.65625,0 0,8 -8,0 z" />
  <path
     sodipodi:nodetypes="sscsssssssscsssssscssssssss"
     inkscape:connector-curvature="0"
     style="fill:#000000;fill-opacity:0.32156863;stroke:none"
     d="m 18,15.000004 c -2.927834,0 -6,3 -6,6.000001 l 0,2 -6,0 c -2.940198,0 -6,2.99066 -6,6 L 0,107 c 0,4 2,6 6,6 l 116,0 c 3.13523,0 6,-2.71669 6,-6 l 0,-67.999995 c 0,-3.009856 -2.91008,-6 -6,-6 l -6,0 0,-12 c 0,-2.922313 -2.90644,-6.000001 -6,-6.000001 z m -12,12.000001 67.999999,0 c 1.18035,0 2,1.02954 2,2 l 0,8 46.000001,0 c 1.0111,0 2,1.017484 2,2 L 124,107 c 0,1.04258 -0.95753,2 -2,2 L 6,109 c -0.92859,0 -2,-0.79269 -2,-2 L 4,29.000005 c 0,-0.98481 1.033057,-2 2,-2 z"
     id="path3778" />
</svg>

<svg width="128" xmlns="http://www.w3.org/2000/svg" height="128" viewBox="0 0 128 128" xmlns:xlink="http://www.w3.org/1999/xlink">
<g style="stroke:#a57953">
<path style="fill:#a57953" d="M 4.34668 24.5 C 3.887695 24.453125 3.5 23.992188 3.5 23.498047 L 3.5 4.506836 C 3.5 3.979492 3.946289 3.5 4.4375 3.5 L 27.5625 3.5 C 28.053711 3.5 28.5 3.979492 28.5 4.506836 L 28.5 20.742188 C 28.5 21.268555 27.782227 22.025391 27.290039 22.025391 L 18.825195 22.010742 L 18.825195 23.334961 C 18.825195 23.856445 18.414062 24.5 17.925781 24.5 L 4.4375 24.5 C 4.408203 24.5 4.378906 24.5 4.34668 24.5 Z " transform="matrix(4 0 0 4 0 4)"/>
<path style="fill:#e9b080" d="M 1.549805 5.5 C 0.980469 5.546875 0.5 6.007812 0.5 6.501953 L 0.5 25.493164 C 0.5 26.020508 1.052734 26.5 1.663086 26.5 L 30.336914 26.5 C 30.947266 26.5 31.5 26.020508 31.5 25.493164 L 31.5 9.257812 C 31.5 8.731445 30.609375 7.974609 30 7.974609 L 19.50293 7.989258 L 19.50293 6.665039 C 19.50293 6.143555 18.993164 5.5 18.387695 5.5 L 1.663086 5.5 C 1.625977 5.5 1.589844 5.5 1.549805 5.5 Z " transform="matrix(4 0 0 4 0 4)"/>
</g>
<g style="fill:#a57953">
<path style="fill-rule:evenodd" d="M 42.671875 56 L 42.671875 61.328125 L 45.328125 61.328125 L 45.328125 57.328125 C 45.328125 55.984375 46.671875 55.984375 46.671875 55.984375 L 50.671875 56 L 50.671875 53.328125 L 45.328125 53.328125 C 45.328125 53.328125 42.671875 53.328125 42.671875 56 Z M 77.328125 53.328125 L 77.328125 56 L 81.328125 56 C 81.328125 56 82.671875 55.984375 82.671875 57.328125 L 82.671875 61.328125 L 85.328125 61.328125 L 85.328125 56 C 85.328125 53.328125 82.671875 53.328125 82.671875 53.328125 Z M 42.671875 82.671875 L 42.671875 88 C 42.671875 90.671875 45.328125 90.671875 45.328125 90.671875 L 50.671875 90.671875 L 50.671875 88 L 46.671875 88.015625 C 45.328125 88 45.328125 86.6875 45.328125 86.6875 L 45.328125 82.671875 Z M 82.671875 82.671875 L 82.671875 86.671875 C 82.671875 87.984375 81.328125 88 81.328125 88 L 77.328125 88 L 77.328125 90.671875 L 82.671875 90.671875 C 82.671875 90.671875 85.328125 90.671875 85.328125 88 L 85.328125 82.671875 Z "/>
<path d="M 50.671875 63.984375 L 50.671875 74.65625 C 50.671875 77.3125 53.328125 77.3125 53.328125 77.3125 L 61.328125 77.3125 C 64 77.3125 64 74.65625 64 74.65625 L 64 66.65625 L 58.671875 61.3125 L 53.328125 61.3125 C 53.328125 61.3125 50.671875 61.3125 50.671875 63.984375 Z M 53.328125 63.984375 L 58.671875 63.984375 L 58.671875 66.65625 L 61.328125 66.65625 L 61.328125 74.65625 L 53.328125 74.65625 Z "/>
</g>
</svg>
